icon-themes/breeze_svg/cmd/lc_assignlayout.svg

<svg viewBox="0 0 24 24" xmlns="http://www.w3.org/2000/svg"><path d="m4.0019531 4.9941406v.0039063h-.0039062v1 12.0000001 1h.0019531v.001953h1 5 3v-.001953h1.591797 1.40625.011719l3.992187-3.992188-.011719-.011718h.011719v-1-8.0000004-1zm1.0019531 1.0039063h13.9999998v8.0000001h-3-1v4h-1.003906-1v.001953h-3-5v-5-2h.0039062zm3 1h1zm3.9999998 0h1zm-6.003906.0019531v10h4v-10zm6 0v1h5v-1zm0 3v1h5v-1zm0 3v1h2v-1z" fill="#4d4d4d"/></svg>

<svg xmlns="http://www.w3.org/2000/svg" viewBox="0 0 24 24">
 <path 
     style="fill:#4d4d4d" 
     d="M 4.0019531 4.9941406 L 4.0019531 4.9980469 L 3.9980469 4.9980469 L 3.9980469 5.9980469 L 3.9980469 17.998047 L 3.9980469 18.998047 L 4 18.998047 L 4 19 L 5 19 L 10 19 L 13 19 L 13 18.998047 L 14.591797 18.998047 L 15.998047 18.998047 L 16.009766 18.998047 L 20.001953 15.005859 L 19.990234 14.994141 L 20.001953 14.994141 L 20.001953 13.994141 L 20.001953 5.9941406 L 20.001953 4.9941406 L 4.0019531 4.9941406 z M 5.0039062 5.9980469 L 19.003906 5.9980469 L 19.003906 13.998047 L 16.003906 13.998047 L 15.003906 13.998047 L 15.003906 17.998047 L 14 17.998047 L 13 17.998047 L 13 18 L 10 18 L 5 18 L 5 13 L 5 11 L 5.0039062 11 L 5.0039062 5.9980469 z M 8.0039062 6.9980469 L 9.0039062 6.9980469 L 8.0039062 6.9980469 z M 12.003906 6.9980469 L 13.003906 6.9980469 L 12.003906 6.9980469 z M 6 7 L 6 17 L 10 17 L 10 7 L 6 7 z M 12 7 L 12 8 L 17 8 L 17 7 L 12 7 z M 12 10 L 12 11 L 17 11 L 17 10 L 12 10 z M 12 13 L 12 14 L 14 14 L 14 13 L 12 13 z "
     />
 </svg>
